svgs/solid/brush.svg

<svg xmlns="http://www.w3.org/2000/svg" viewBox="0 0 384 512"><!-- Font Awesome Pro 6.0.0-alpha2 by @fontawesome - https://fontawesome.com License - https://fontawesome.com/license (Commercial License) --><path d="M0 320C0 355.375 28.625 384 64 384H128V448C128 483.375 156.625 512 192 512S256 483.375 256 448V384H320C355.375 384 384 355.375 384 320V288H0V320ZM192 424C205.25 424 216 434.75 216 448S205.25 472 192 472S168 461.25 168 448S178.75 424 192 424ZM352 0H224L192 64L160 0H128L96 64L64 0H32C14.375 0 0 14.375 0 32V256H384V32C384 14.375 369.625 0 352 0Z"/></svg>

<svg xmlns="http://www.w3.org/2000/svg" viewBox="0 0 384 512"><!-- Font Awesome Pro 5.15.1 by @fontawesome - https://fontawesome.com License - https://fontawesome.com/license (Commercial License) --><path d="M352 0H32C14.33 0 0 14.33 0 32v224h384V32c0-17.67-14.33-32-32-32zM0 320c0 35.35 28.66 64 64 64h64v64c0 35.35 28.66 64 64 64s64-28.65 64-64v-64h64c35.34 0 64-28.65 64-64v-32H0v32zm192 104c13.25 0 24 10.74 24 24 0 13.25-10.75 24-24 24s-24-10.75-24-24c0-13.26 10.75-24 24-24z"/></svg>
